svgs/light/hands-clapping.svg

<svg xmlns="http://www.w3.org/2000/svg" viewBox="0 0 512 512"><!--! Font Awesome Pro 6.0.0-alpha3 by @fontawesome - https://fontawesome.com License - https://fontawesome.com/license (Commercial License) --><path d="M511.9 191.1c-.0938-30.83-25.34-55.98-56.16-55.98c-7.695 0-23.78 1.151-23.78 16.73c0 9.793 8.218 16.05 15.99 16.05c2.886 0 3.756-.7368 7.474-.7368c12.75 0 24.31 10.65 24.34 23.92L480 341.1c0 57.64-34.06 109.7-84.75 129.5c-6.332 2.47-10.2 8.512-10.2 14.9c0 8.678 7.025 16 16.01 16C410.7 501.5 512 458.6 512 341.1L511.9 191.1zM399.8 191.9c-.0488-30.85-25.17-55.94-56-55.94c-30.88 0-56 25.13-56 56.02v9.225l-95.13-96.05C181.7 94.22 166.8 88 151.5 88c-35.37 0-48.89 28.91-50.89 33.55C96.31 120.5 91.91 120 87.49 120c-13.76 0-26.89 5.004-36.96 14.09c-4.331 3.906-18.53 18.07-18.53 41.6c0 4.353 .5135 8.67 1.505 12.86C9.673 198.8 .001 222 .001 239.8c0 14.78 5.929 29.15 16.39 39.63l9.346 9.354C.6921 304.8 .0117 330.9 .0117 335.8c0 15.59 6.473 31.21 19.08 42.27l104.6 92.63C154.3 497.4 193.2 512 233.5 512C329.4 512 400 433.2 400 341.1L399.8 191.9zM233.5 480c-32.56 0-64-11.82-88.56-33.31l-104.7-92.73c-5.417-4.751-8.186-11.4-8.186-18.08c0-13.22 10.7-24.01 24-24.01c5.615 0 11.26 1.959 15.81 5.932l52.19 49.41c1.729 1.621 3.932 2.426 6.135 2.426c4.806 0 8.972-3.871 8.972-8.979c0-2.298-.876-4.596-2.628-6.349L39.03 256.8C34.34 252.1 32 245.9 32 239.8c0-12.5 9.741-23.72 23.49-23.72c6.678 0 13.44 2.682 18.44 7.688l95.81 95.89c1.943 1.943 4.488 2.914 7.031 2.914c5.326 0 9.945-4.289 9.945-9.952c0-2.547-.9707-5.094-2.912-7.036L71.03 192.7C66.34 188 63.1 181.9 63.1 175.7c0-12.49 9.739-23.72 23.49-23.72c6.676 0 13.44 2.682 18.44 7.688l111.8 111.9c1.941 1.943 4.486 2.914 7.031 2.914c5.326 0 9.945-4.289 9.945-9.952c0-2.547-.9707-5.095-2.912-7.038L135 160.7C130.3 156 128 149.9 128 143.7C128 131.2 137.7 120 151.5 120c6.678 0 13.44 2.682 18.44 7.688l133.7 135c1.928 1.928 4.297 2.793 6.621 2.793c4.865 0 9.533-3.781 9.533-9.492l.1367-64c0-13.27 10.61-24.02 23.87-24.02c13.24 0 23.98 10.73 24 23.98L368 341.1C368 415.4 312.4 480 233.5 480zM383.4 96c5.125 0 10.16-2.453 13.25-7.016l32.56-48c1.854-2.746 2.744-5.865 2.744-8.951c0-8.947-7.273-16.04-15.97-16.04c-5.125 0-10.17 2.465-13.27 7.02l-32.56 48C368.3 73.76 367.4 76.88 367.4 79.97C367.4 88.88 374.7 96 383.4 96zM243.3 88.98C246.4 93.55 251.4 96 256.6 96c8.762 0 15.99-7.117 15.99-16.03c0-3.088-.8906-6.205-2.744-8.951l-32.56-48C234.2 18.46 229.1 15.98 223.1 15.98c-8.664 0-15.98 7.074-15.98 16.05c0 3.086 .8906 6.205 2.744 8.951L243.3 88.98zM320 96c8.844 0 16-7.156 16-16v-64C336 7.156 328.8 0 320 0s-16 7.156-16 16v64C304 88.84 311.2 96 320 96z"/></svg>

<svg xmlns="http://www.w3.org/2000/svg" viewBox="0 0 512 512"><!-- Font Awesome Pro 6.0.0-alpha2 by @fontawesome - https://fontawesome.com License - https://fontawesome.com/license (Commercial License) --><path d="M511.812 191.891C511.718 161.062 486.593 135.984 455.78 135.984C448.085 135.984 432.003 137.135 432.003 152.715C432.003 162.508 440.221 168.765 447.996 168.765C450.882 168.765 451.752 168.028 455.47 168.028C468.216 168.028 479.783 178.681 479.812 191.953L479.999 341.109C479.999 398.75 445.937 450.766 395.249 470.563C388.917 473.033 385.052 479.074 385.052 485.466C385.052 494.143 392.077 501.469 401.062 501.469C410.681 501.469 511.999 458.586 511.999 341.094L511.812 191.891ZM399.798 191.918C399.749 161.07 374.626 135.98 343.796 135.98C312.917 135.98 287.794 161.111 287.794 192V201.225L192.661 105.17C181.728 94.223 166.755 88 151.487 88C116.114 88 102.599 116.909 100.595 121.555C96.313 120.549 91.913 120.025 87.487 120.025C73.728 120.025 60.601 125.029 50.528 134.113C46.197 138.019 32 152.184 32 175.714C32 180.066 32.514 184.384 33.505 188.576C9.672 198.819 0 222.026 0 239.772C0 254.553 5.929 268.924 16.394 279.398L25.739 288.752C0.691 304.837 0.034 330.964 0.034 335.855C0.034 351.449 6.484 366.966 19.089 378.02L123.722 470.65C154.255 497.359 193.19 512 233.495 512C329.384 512 399.999 433.237 399.999 341.123L399.798 191.918ZM233.495 480C200.933 480 169.495 468.176 144.933 446.689L40.187 353.961C34.769 349.21 32.001 342.562 32.001 335.88C32.001 322.657 42.701 311.873 56.001 311.873C61.616 311.873 67.257 313.832 71.813 317.805L124.005 367.219C125.733 368.84 127.937 369.645 130.14 369.645C134.945 369.645 139.111 365.774 139.111 360.665C139.111 358.367 138.235 356.069 136.483 354.316L39.03 256.781C34.343 252.09 31.999 245.944 31.999 239.798C31.999 227.3 41.74 216.082 55.485 216.082C62.163 216.082 68.921 218.764 73.923 223.77L169.731 319.66C171.675 321.604 174.22 322.574 176.763 322.574C182.088 322.574 186.708 318.285 186.708 312.622C186.708 310.075 185.737 307.528 183.796 305.586L71.03 192.727C66.343 188.035 63.999 181.889 63.999 175.743C63.999 163.251 73.738 152.025 87.487 152.025C94.163 152.025 100.923 154.707 105.923 159.713L217.733 271.619C219.675 273.563 222.22 274.533 224.765 274.533C230.091 274.533 234.71 270.244 234.71 264.581C234.71 262.034 233.739 259.486 231.798 257.543L135.032 160.697C130.344 156.006 128 149.86 128 143.714C128 131.243 137.718 120 151.487 120C158.165 120 164.925 122.682 169.925 127.688L303.64 262.699C305.567 264.627 307.937 265.492 310.261 265.492C315.126 265.492 319.794 261.711 319.794 256V192C319.794 178.734 330.54 167.98 343.796 167.98C357.036 167.98 367.776 178.711 367.798 191.961L367.999 341.123C367.999 415.359 312.379 480 233.495 480ZM383.437 96C388.562 96 393.593 93.547 396.687 88.984L429.249 40.984C431.103 38.238 431.993 35.119 431.993 32.033C431.993 23.086 424.72 15.996 416.022 15.996C410.897 15.996 405.849 18.461 402.749 23.016L370.187 71.016C368.333 73.762 367.442 76.879 367.442 79.967C367.442 88.885 374.677 96 383.437 96ZM243.312 88.984C246.405 93.547 251.437 96 256.562 96C265.323 96 272.556 88.883 272.556 79.967C272.556 76.879 271.665 73.762 269.812 71.016L237.249 23.016C234.149 18.455 229.106 15.984 223.981 15.984C215.317 15.984 208.005 23.059 208.005 32.033C208.005 35.119 208.896 38.238 210.749 40.984L243.312 88.984ZM319.999 96C328.843 96 335.999 88.844 335.999 80V16C335.999 7.156 328.843 0 319.999 0S303.999 7.156 303.999 16V80C303.999 88.844 311.155 96 319.999 96Z"/></svg>
